X:4335
T:Down the Back Lane
S: Mike Rafferty
M:6/8
I:speed 250
K:G
d | cAG  A2 G | FDE F2d | cAA BAG | Ade fed |
cAG A2 G | FDE F2 G | Add fed | ecA G3 |
 | ABG  A2 G | FDE F2d | CAA BAG | Ade fed |
cAG A2 G | FDE F2 G | Add fed | ecA G3|
|: Add fed | cAB cAG | Add fed | ecA G3 |
Add fed | cAB cde | fag efd | cAF G3 :|
